app/javascript/images/logo_transparent_black.svg

<svg xmlns="http://www.w3.org/2000/svg" viewBox="0 0 216.4144 232.00976"><path d="M107.86523 0C78.203984.2425 49.672422 3.4535937 33.044922 11.089844c0 0-32.97656262 14.752031-32.97656262 65.082031 0 11.525-.224375 25.306175.140625 39.919925 1.19750002 49.22 9.02375002 97.72843 54.53124962 109.77343 20.9825 5.55375 38.99711 6.71547 53.505856 5.91797 26.31125-1.45875 41.08203-9.38867 41.08203-9.38867l-.86914-19.08984s-18.80171 5.92758-39.91796 5.20508c-20.921254-.7175-43.006879-2.25516-46.390629-27.94141-.3125-2.25625-.46875-4.66938-.46875-7.20313 0 0 20.536953 5.0204 46.564449 6.21289 15.915.73001 30.8393-.93343 45.99805-2.74218 29.07-3.47125 54.38125-21.3818 57.5625-37.74805 5.0125-25.78125 4.59961-62.916015 4.59961-62.916015 0-50.33-32.97461-65.082031-32.97461-65.082031C166.80539 3.4535938 138.255.2425 108.59375 0h-.72852zM74.296875 39.326172c12.355 0 21.710234 4.749297 27.896485 14.248047l6.01367 10.080078 6.01563-10.080078c6.185-9.49875 15.54023-14.248047 27.89648-14.248047 10.6775 0 19.28156 3.753672 25.85156 11.076172 6.36875 7.3225 9.53907 17.218828 9.53907 29.673828v60.941408h-24.14454V81.869141c0-12.46875-5.24453-18.798829-15.73828-18.798829-11.6025 0-17.41797 7.508516-17.41797 22.353516v32.375002H96.207031V85.423828c0-14.845-5.815468-22.353515-17.417969-22.353516-10.49375 0-15.740234 6.330079-15.740234 18.798829v59.148439H38.904297V80.076172c0-12.455 3.171016-22.351328 9.541015-29.673828 6.568751-7.3225 15.172813-11.076172 25.851563-11.076172z" fill="#000"/></svg>

<?xml version="1.0" encoding="UTF-8" standalone="no"?>
<!DOCTYPE svg PUBLIC "-//W3C//DTD SVG 1.1//EN" "http://www.w3.org/Graphics/SVG/1.1/DTD/svg11.dtd">
<svg width="100%" height="100%" viewBox="0 0 217 233" version="1.1" xmlns="http://www.w3.org/2000/svg" xmlns:xlink="http://www.w3.org/1999/xlink" xml:space="preserve" xmlns:serif="http://www.serif.com/" style="fill-rule:evenodd;clip-rule:evenodd;stroke-linejoin:round;stroke-miterlimit:1.41421;">
    <path d="M107.865,0C78.204,0.243 49.672,3.454 33.045,11.09C33.045,11.09 0.068,25.842 0.068,76.172C0.068,87.697 -0.156,101.478 0.209,116.092C1.406,165.312 9.233,213.82 54.74,225.865C75.723,231.419 93.737,232.581 108.246,231.783C134.557,230.324 149.328,222.395 149.328,222.395L148.459,203.305C148.459,203.305 129.657,209.232 108.541,208.51C87.62,207.792 65.534,206.255 62.15,180.568C61.838,178.312 61.682,175.899 61.682,173.365C61.682,173.365 82.219,178.386 108.246,179.578C124.161,180.308 139.085,178.645 154.244,176.836C183.314,173.365 208.625,155.454 211.807,139.088C216.819,113.307 216.406,76.172 216.406,76.172C216.406,25.842 183.432,11.09 183.432,11.09C166.805,3.454 138.255,0.243 108.594,0L107.865,0ZM59.956,27.596C72.983,21.2 158.787,17.93 170.27,26.89C177.178,32.281 178.11,47.597 161.732,53.043C143.357,59.154 100.461,29.738 78.379,55.31C59.928,76.678 59.636,100.679 72.602,118.376C86.263,137.022 139.539,110.625 154.618,114.033C170.268,117.571 164.599,143.627 154.286,147.251C130.96,155.447 69.847,154.315 52.786,142.491C33.721,129.278 37.849,91.392 38.607,81.455C40.948,50.749 48.518,33.211 59.956,27.596Z" style="fill-rule:nonzero;"/>
</svg>
